!!!COM: Music21
!!!OTL: bps_15_01.mxl
!!!OMV: bps_15_01.mxl
**kern	**dynam
*clefG2	*
*k[f#c#]	*
*D:	*
*M3/4	*
=1	=1
!LO:TX:a:B:t=Allegro	!
4DD	.
4DD	.
4DD	.
=2!|:	=2!|:
4DD [4cn [4f# [4a	p
4DD 4c_ 4f#_ 4a_	.
4DD 4c] 4f#] 4a]	.
=3	=3
4DD [4B [4d 4a	.
4DD 4B_ 4d_ [4g	.
4DD 4B_ 4d_ 4g_	.
=4	=4
4DD 4B_ 4d_ 4g_	.
4DD 4B] 4d] 4g]	.
[8DDL [8G [8B 8f#	.
8DDJ] 8G] 8B] 8e	.
=5	=5
4DD [4E [4G [4d	.
4DD 4E_ 4G_ 4d]	.
4DD 4E] 4G] 4c#	.
=6	=6
4DD [4C# [4G [4B	.
4DD 4C#_ 4G_ 4B]	.
4DD 4C#] 4G] 4A	.
=7	=7
4DD [4D [4F# [4A	.
4DD 4D_ 4F#_ 4A_	.
4DD 4D] 4F#] 4A]	.
=8	=8
4DD [4FF# [4A [4d	.
4DD 4FF#_ 4A_ 4d_	.
4DD 4FF#] 4A] 4d]	.
=9	=9
4DD [4AA [4c# [4e	.
4DD 4AA_ 4c#] 4e]	.
[8DDL 8AA_ 8d 8f#	.
8DDJ] 8AA] 8e 8g	.
=10	=10
4DD'` 4D 4d 4f#	.
4D	.
4D	.
=11	=11
4D [4d	p
4D 4d_	.
4D 4d]	.
=12	=12
4D [4F# [4ccn [4aa	.
4D 4F#_ 4cc_ 4aa_	.
4D 4F#] 4cc] 4aa]	.
=13	=13
4D [4G [4b 4aa	.
4D 4G_ 4b_ [4gg	.
4D 4G] 4b] 4gg_	.
=14	=14
4D [4B [4g 4gg_	.
4D 4B_ 4g_ 4gg]	.
[8DL 8B_ 8g_ 8ff#	.
8DJ] 8B] 8g] 8ee	.
=15	=15
4D [4e [4g [4dd	.
4D 4e_ 4g_ 4dd]	.
4D 4e] 4g] 4cc#	.
=16	=16
4D [4c# [4g [4b	.
4D 4c#_ 4g_ 4b]	.
4D 4c#] 4g] 4a	.
=17	=17
4D [4d [4f# [4a	.
4D 4d_ 4f#_ 4a_	.
4D 4d] 4f#] 4a]	.
=18	=18
4D [4F# [4a [4dd	.
4D 4F#_ 4a_ 4dd_	.
4D 4F#] 4a] 4dd]	.
=19	=19
4D [4A [4cc# [4ee	.
4D 4A_ 4cc#] 4ee]	.
[8DL 8A_ 8dd 8ff#	.
8DJ] 8A] 8ee 8gg	.
=20	=20
4D'` 4d 4dd 4ff#	.
4D	.
4D	.
=21	=21
[4FF# 4D [4A [4d	.
4FF#_ 4D 4A_ 4d_	.
4FF#_ 4D 4A_ 4d_	.
=22	=22
4FF#] 4D 4A] 4d]	.
4GG 4D 4B 4e	.
4AA 4D 4cn 4f#	.
=23	=23
[4BB 4D [4d 4a	.
4BB_ 4D 4d_ [4g	sf
4BB_ 4D 4d_ 4g_	.
=24	=24
4BB_ 4D 4d_ 4g_	p
4BB] 4D 4d] 4g]	.
4AA 4D 4cn [4f#	.
=25	=25
[4GG 4D 4f#]	.
4GG] 4D 4e	.
4GG#X 4E [4d	sf
=26	=26
[4AA 4E 4d]	.
4AA] 4E 4c#	.
4AA 4Gn [4B	sf
=27	=27
[8DL [8F# 8B]	.
8DJ] 8F#] 8d	.
[8DL 8f#	.
8DJ] 8a	.
[8DL 8dd	.
8DJ] 8ff#	.
=28	=28
[8DL 8aa	.
8DJ] 8ff#	.
[12DL 12dd	.
12D_ 12a	.
12DJ] 12f#	.
[12DL 12a	.
12D_ 12g	.
12DJ] 12e	.
=29	=29
!LO:TX:b:t=cresc.	!
[4FF# 4D [4d [4dd	.
4FF#_ 4D 4d_ 4dd_	.
4FF#_ 4D 4d_ 4dd_	.
=30	=30
4FF#] 4D 4d] 4dd]	.
4GG 4D 4e 4ee	.
4AA 4D 4f# 4ff#	.
=31	=31
[4BB 4D 4a 4aa	.
4BB_ 4D [4g [4gg	sf
4BB_ 4D 4g_ 4gg_	.
=32	=32
4BB_ 4D 4g_ 4gg_	p
4BB] 4D 4g] 4gg]	.
4AA 4D [4f# [4ff#	.
=33	=33
[4GG 4D 4f#] 4ff#]	.
4GG] 4D 4e 4ee	.
4GG#X 4E [4d [4dd	sf
=34	=34
[4AA 4E 4d] 4dd]	.
4AA] 4E 4c# 4cc#	.
4AA 4Gn [4A [4a	sf
=35	=35
[8DL [8F# 8A] 8a]	.
8DJ] 8F#] 8d	.
[8DL 8f#	.
8DJ] 8a	.
[8DL 8dd	.
8DJ] 8ff#	.
=36	=36
!LO:TX:b:t=cresc.	!
4D 4a 4aa	.
4D 4g 4gg	.
4FF# 4D [4f# [4ff#	.
=37	=37
[4GG 4D 4f#] 4ff#]	.
4GG] 4D 4e 4ee	.
4GG#X 4E [4d [4dd	sf
=38	=38
[4AA 4E 4d] 4dd]	.
4AA] 4E 4c# 4cc#	.
4AA 4Gn 4e 4ee	sf
=39	=39
4D'` 4F# 4d 4dd	.
2r	.
=40	=40
2.D [2.A 2.f# 2.b	.
=41	=41
2.C# 2.A] 2.e [2.a	.
=42	=42
[4BB [4E 4d 4a]	.
8BBL_ 8E_ 8g#X	.
8BBJ_ 8E_ 8b	.
4BB] 4E_ [4dd	.
=43	=43
4AA 4E] 4dd]	.
4cc#	.
4r	.
=44	=44
2.A [2.e 2.cc# 2.ff#	.
=45	=45
2.G#X 2.e] 2.b [2.ee	.
=46	=46
[4F# [4B 4a 4ee]	.
8F#L_ 8B_ 8dd#X	.
8F#J_ 8B_ 8ff#	.
4F#] 4B_ [4aa	.
=47	=47
4E 4B] 4aa]	.
4gg#X	.
4r	.
=48	=48
[8DL [8A [8f#	.
8DJ_ 8A_ 8f#_ 8b	.
8DL_ 8A_ 8f#_ 8a#X	.
8DJ_ 8A_ 8f#_ 8b	.
8DL_ 8A_ 8f#_ 8cc#	.
8DJ] 8A_ 8f#_ 8b	.
=49	=49
[8C#L 8A_ 8f#] [8an	.
8C#J_ 8A_ 8e 8a_	.
8C#L_ 8A_ 8d#X 8a_	.
8C#J_ 8A_ 8e 8a_	.
8C#L_ 8A_ 8f# 8a_	.
8C#J] 8A] 8e 8a]	.
=50	=50
[8BBL [8E [8dn 8g#X	.
8BBJ_ 8E_ 8d] 8a	.
8BBL_ 8E_ 8b	.
8BBJ_ 8E_ 8cc#	.
8BBL_ 8E_ 8dd	.
8BBJ] 8E_ 8ee	.
=51	=51
[8AAL 8E_ 8dd	.
8AAJ] 8E] 8cc#	.
8bL	.
8aJ	.
8g#XL	.
8aJ	.
=52	=52
[8AL [8e [8cc#	.
8AJ_ 8e_ 8cc#_ 8ff#	.
8AL_ 8e_ 8cc#_ 8ee#X	.
8AJ_ 8e_ 8cc#_ 8ff#	.
8AL_ 8e_ 8cc#_ 8gg#X	.
8AJ] 8e_ 8cc#_ 8ff#	.
=53	=53
[8G#XL 8e_ 8cc#] [8ee	.
8G#J_ 8e_ 8b 8ee_	.
8G#L_ 8e_ 8a#X 8ee_	.
8G#J_ 8e_ 8b 8ee_	.
8G#L_ 8e_ 8cc# 8ee_	.
8G#J] 8e] 8b 8ee]	.
=54	=54
[8F#L [8A [8B [8a 8dd#X	f
8F#J_ 8A_ 8B_ 8a] 8ee	.
8F#L_ 8A_ 8B_ 8ff#	.
8F#J_ 8A_ 8B_ 8gg#X	.
8F#L_ 8A_ 8B_ 8aa	.
8F#J] 8A] 8B_ 8bb	.
=55	=55
[8EL [8G#X 8B_ 8aa	.
8E'`J] 8G#] 8B] 8gg#X	.
8ff#L	.
8eeJ	.
8dd#XL	.
8eeJ	.
=56	=56
[8FF#L [8AA [8BB 8dd#X	sf
8FF#J_ 8AA_ 8BB_ 8ee	.
8FF#L_ 8AA_ 8BB_ 8ff#	.
8FF#J_ 8AA_ 8BB_ 8gg#X	.
8FF#L_ 8AA_ 8BB_ 8aa	.
8FF#J] 8AA] 8BB_ 8bb	.
=57	=57
[8EEL [8GG#X 8BB_ 8aa	.
8EEJ] 8GG#] 8BB] 8gg#X	.
8ff#L	.
8eeJ	.
8dd#XL	.
8eeJ	.
=58	=58
[8F#L [8A [8B 8dd#X	sf
8F#J_ 8A_ 8B_ 8ee	.
8F#L_ 8A_ 8B_ 8ff#	.
8F#J_ 8A_ 8B_ 8gg#X	.
8F#L_ 8A_ 8B_ 8aa	.
8F#J] 8A] 8B] 8bb	.
=59	=59
[8EL [8G#X [8B 8aa	.
8EJ] 8G#] 8B] 8gg#X	.
8ff#L	.
8eeJ	.
8dd#XL	.
8cc#J	.
=60	=60
!LO:TX:b:t=dim.	!
8bL	.
8aJ	.
8g#XL	.
8f#J	.
8eL	.
8d#XJ	.
=61	=61
[2.e	p
=62	=62
2.e]	.
=63	=63
[4G#X [4B [4e#X	pp
4C#'` 4G#_ 4B_ 4e#_	.
4C#'` 4G#] 4B] 4e#]	.
=64	=64
[4A [4c# [4f#	.
4FF#'` 4A_ 4c#_ 4f#_	.
4FF#'` 4A] 4c#] 4f#]	.
=65	=65
[4B [4e#X [4g#X	.
4CC#'` 4B_ 4e#_ 4g#_	.
4CC#'` 4B] 4e#] 4g#]	.
=66	=66
[4c# [4f# [4a	.
4FFF#'` 4c#_ 4f#_ 4a_	.
4FFF#'` 4c#] 4f#] 4a]	.
=67	=67
[4c# [4en [4gn [4a#X	.
4F#'` 4c#_ 4e_ 4g_ 4a#_	.
4F#'` 4c#] 4e] 4g] 4a#]	.
=68	=68
[4d [4f# 4b	.
4BB'` 4d_ 4f#_ 4cc#	.
4BB'` 4d] 4f#] 4dd	.
=69	=69
[4c# [4e [4an	.
4E'` 4c#] 4e] 4a]	.
4EE'` 4B 4d 4g#X	.
=70	=70
8AA'`L 8c# 8a	.
8c#J 8cc#	.
8BL 8b	.
8AJ 8a	.
8G#XL 8g#X	.
8F#J 8f#	.
=71	=71
!LO:TX:b:t=cresc.	!
[4E#X [4e#X	.
4C# 4E#_ 4e#_	.
4C# 4E#] 4e#]	.
=72	=72
[4F# [4f#	.
4C# 4F#_ 4f#_	.
4C# 4F#] 4f#]	.
=73	=73
[4E#X [4G#X [4e#X [4g#X	.
4C# 4E#_ 4G#_ 4e#_ 4g#_	.
4C# 4E#] 4G#] 4e#] 4g#]	.
=74	=74
[4F# [4A [4f# [4a	.
4C# 4F#_ 4A_ 4f#_ 4a_	.
4C# 4F#] 4A] 4f#] 4a]	.
=75	=75
[4F# [4B [4f# [4b	.
4D 4F#_ 4B_ 4f#_ 4b_	.
4D 4F#] 4B] 4f#] 4b]	.
=76	=76
[4F# [4B#X [4f# [4b#X	.
4D 4F#_ 4B#_ 4f#_ 4b#_	.
4D 4F#] 4B#] 4f#] 4b#]	.
=77	=77
[8C#L 8E#X 8e#X [8cc#	p
8C#J_ 8G#X 8g#X 8cc#_	.
8C#L_ 8E#X 8e#X 8cc#_	.
8C#J_ 8G#X 8g#X 8cc#_	.
8C#L_ 8E#X 8e#X 8cc#_	.
8C#J_ 8G#X 8g#X 8cc#_	.
=78	=78
8C#L_ 8E#X 8e#X 8cc#_	.
8C#J_ 8G#X 8g#X 8cc#_	.
8C#L_ 8E#X 8e#X 8cc#_	.
8C#J] 8G#X 8g#X 8cc#]	.
[8DnL 8F# 8f# [8b#X	.
8DJ] 8G#X 8g#X 8b#]	.
=79	=79
[8C#L 8E#X 8e#X [8cc#	.
8C#J_ 8G#X 8g#X 8cc#_	.
8C#L_ 8E#X 8e#X 8cc#_	.
8C#J] 8G#X 8g#X 8cc#]	.
[8DL 8F# 8f# [8b#X	.
8DJ] 8G#X 8g#X 8b#]	.
=80	=80
[8C#L 8E#X 8e#X [8cc#	.
8C#J_ 8G#X 8g#X 8cc#_	.
8C#L_ 8E#X 8e#X 8cc#_	.
8C#J] 8G#X 8g#X 8cc#]	.
[8DL 8F# 8f# [8b#X	.
8DJ] 8G#X 8g#X 8b#]	.
=81	=81
[8C#L 8E#X 8e#X [8cc#	.
8C#J_ 8G#X 8g#X 8cc#_	.
8C#L_ 8E#X 8e#X 8cc#_	.
8C#J_ 8G#X 8g#X 8cc#_	.
8C#L_ 8E#X 8e#X 8cc#_	.
8C#J_ 8G#X 8g#X 8cc#_	.
=82	=82
8C#L_ 8E#X 8e#X 8cc#_	.
8C#J_ 8G#X 8g#X 8cc#_	.
8C#L_ 8E#X 8e#X 8cc#_	.
8C#J] 8G#X 8g#X 8cc#]	.
[8AA#XL 8E#X 8e#X [8cc#	.
8AA#J] 8G#X 8g#X 8cc#]	.
=83	=83
[8BBL 8E#X 8e#X [8dd	.
8BBJ_ 8G#X 8g#X 8dd_	.
8BBL_ 8E#X 8e#X 8dd_	.
8BBJ] 8G#X 8g#X 8dd]	.
[8AA#XL 8E#X 8e#X [8cc#	.
8AA#J] 8G#X 8g#X 8cc#]	.
=84	=84
[8BBL 8E#X 8e#X [8dd	.
8BBJ_ 8G#X 8g#X 8dd_	.
8BBL_ 8E#X 8e#X 8dd_	.
8BBJ] 8G#X 8g#X 8dd]	.
[8AA#XL 8E#X 8e#X [8cc#	.
8AA#J] 8G#X 8g#X 8cc#]	.
=85	=85
[8BBL 8E#X 8e#X [8dd	.
8BBJ_ 8G#X 8g#X 8dd_	.
8BBL_ 8E#X 8e#X 8dd_	.
8BBJ_ 8G#X 8g#X 8dd_	.
8BBL_ 8E#X 8e#X 8dd_	.
8BBJ_ 8G#X 8g#X 8dd_	.
=86	=86
8BBL_ 8E#X 8e#X 8dd_	.
8BBJ_ 8G#X 8g#X 8dd_	.
8BBL_ 8E#X 8e#X 8dd_	.
8BBJ_ 8G#X 8g#X 8dd_	.
8BBL_ 8E#X 8e#X 8dd_	.
8BBJ] 8G#X 8g#X 8dd]	.
=87	=87
!LO:TX:b:t=cresc.	!
[8BBL 8En 8en [8dd	.
8BBJ_ 8G#X 8g#X 8dd_	.
8BBL_ 8E 8e 8dd_	.
8BBJ] 8G#X 8g#X 8dd]	.
[8AA#XL 8E 8e [8cc#	.
8AA#J] 8G#X 8g#X 8cc#]	.
=88	=88
[8BBL 8E 8e [8dd	.
8BBJ_ 8G#X 8g#X 8dd_	.
8BBL_ 8E 8e 8dd_	.
8BBJ] 8G#X 8g#X 8dd]	.
[8AA#XL 8E 8e [8cc#	.
8AA#J] 8G#X 8g#X 8cc#]	.
=89	=89
[8BBL 8E 8e [8dd	.
8BBJ_ 8G#X 8g#X 8dd_	.
8BBL_ 8E 8e 8dd_	.
8BBJ_ 8G#X 8g#X 8dd_	.
8BBL_ 8E 8e 8dd_	.
8BBJ_ 8G#X 8g#X 8dd_	.
=90	=90
8BBL_ 8E 8e 8dd_	.
8BBJ_ 8G#X 8g#X 8dd_	.
8BBL_ 8E 8e 8dd_	.
8BBJ] 8G#X 8g#X 8dd]	.
!	!LO:DY:a
[8BBL 8E 8d [8dd	p
8BBJ] 8G#X 8g#X 8dd]	.
=91	=91
[8AAL 8A 8c# [8cc#	.
8AAJ_ 8E 8e 8cc#_	.
8AAL_ 8A 8c# 8cc#_	.
8AAJ] 8E 8e 8cc#]	.
[8BBL 8B 8d [8dd	.
8BBJ] 8E 8e 8dd]	.
=92	=92
[8AAL 8A 8c# [8cc#	.
8AAJ_ 8E 8e 8cc#_	.
8AAL_ 8A 8c# 8cc#_	.
8AAJ] 8E 8e 8cc#]	.
[8GG#XL 8G#X 8B [8b	.
8GG#J] 8C# 8e#X 8b]	.
=93	=93
[8FF#L 8F# 8A [8a	.
8FF#J_ 8C# 8c# 8a_	.
8FF#L_ 8F# 8A 8a_	.
8FF#J_ 8C# 8c# 8a_	.
8FF#L_ 8F# 8A 8a_	.
8FF#J_ 8C# 8c# 8a_	.
=94	=94
8FF#L_ 8F# 8A 8a_	.
8FF#J_ 8C# 8c# 8a_	.
8FF#L_ 8F# 8A 8a_	.
8FF#J] 8C# 8c# 8a]	.
[8GG#XL 8G#X 8B [8b	.
8GG#J] 8C# 8c# 8b]	.
=95	=95
[8FF#L 8F# 8A [8a	.
8FF#J_ 8C# 8c# 8a_	.
8FF#L_ 8F# 8A 8a_	.
8FF#J] 8C# 8c# 8a]	.
[8GG#XL 8G#X 8B [8b	.
8GG#J] 8C# 8c# 8b]	.
=96	=96
[8FF#L 8F# 8A [8a	.
8FF#J_ 8C# 8c# 8a_	.
8FF#L_ 8F# 8A 8a_	.
8FF#J] 8C# 8c# 8a]	.
[8EEnL 8En 8Gn [8gn	.
8EEJ] 8AA 8c# 8g]	.
=97	=97
[8DDL 8D 8F# [8f#	.
8DDJ_ 8AA 8A 8f#_	.
!LO:TX:a:t=cresc.	!
8DDL_ 8D 8F# 8f#_	.
8DDJ_ 8AA 8A 8f#_	.
8DDL_ 8D 8F# 8f#_	.
8DDJ_ 8AA 8A 8f#_	.
=98	=98
8DDL_ 8D 8F# 8f#_	.
8DDJ_ 8AA 8A 8f#_	.
8DDL_ 8D 8F# 8f#_	.
8DDJ] 8AA 8A 8f#]	.
[8EEL 8E 8G [8g	.
8EEJ] 8AA 8A 8g]	.
=99	=99
[8DDL 8D 8F# [8f#	.
8DDJ_ 8AA 8A 8f#_	.
8DDL_ 8D 8F# 8f#_	.
8DDJ] 8AA 8A 8f#]	.
[8EEL 8E 8G [8g	.
8EEJ] 8AA 8A 8g]	.
=100	=100
[8DDL 8D 8F# [8f#	.
8DDJ_ 8AA 8A 8f#_	.
8DDL_ 8D 8F# 8f#_	.
8DDJ] 8AA 8A 8f#]	.
!	!LO:DY:a
[8BBBL 8BB 8G#X [8g#X	sf
8BBBJ] 8EE 8A 8g#]	.
=101	=101
[8CC#L 8C# 8A [8a	.
8CC#J_ 8EE 8e 8a_	.
8CC#L_ 8C# 8A 8a_	.
8CC#J] 8EE 8e 8a]	.
[8GGG#XL 8GG#X 8B [8b	sf
8GGG#J] 8EE 8e 8b]	.
=102	=102
[8AAAL 8AA 8c# [8cc#	.
8AAAJ_ 8EE 8e 8cc#_	.
8AAAL_ 8AA 8c# 8cc#_	.
8AAAJ] 8EE 8e 8cc#]	.
[8FFF#L 8FF# 8d [8dd	sf
8FFF#J] 8DD 8a 8dd]	.
=103	=103
2.CC# 2.AA 2.C# 2.e 2.a 2.ee	sf
=104	=104
12eeL	.
12dd#X	.
12ff#J	.
12eeL	.
12ddn	.
12cc#J	.
20bLL	.
20a	.
20g#XJ	.
20f#L	.
20eJJ	.
=105	=105
2.F# 2.A 2.d#X 2.aa	sf
=106	=106
12aaL	.
12gg#X	.
12bbJ	.
12aaL	.
12gg#X	.
12ff#J	.
20eeLL	.
20dd#X	.
20cc#J	.
20bL	.
20aJJ	.
=107	=107
[12EL [12A [12c# [12e 12aa	f
12E_ 12A_ 12c#_ 12e_ 12gg#X	.
12EJ] 12A] 12c#] 12e] 12bb	.
12aaL	.
12gg#X	.
12ff#J	.
20eeLL	.
20ddn	.
20cc#J	.
20bL	.
20aJJ	.
=108	=108
[12EL [12G#X [12B [12d 12ee	f
12E_ 12G#_ 12B_ 12d_ 12dd#X	.
12EJ] 12G#] 12B] 12d] 12ff#	.
12eeL	.
12ddn	.
12cc#J	.
20bLL	.
20a	.
20g#XJ	.
20f#L	.
20eJJ	.
=109	=109
[8C#L 8c# 8e [8ee	p
8C#J_ 8A 8a 8ee_	.
8C#L_ 8c# 8e 8ee_	.
8C#J_ 8A 8a 8ee_	.
8C#L_ 8c# 8e 8ee_	.
8C#J_ 8A 8a 8ee_	.
=110	=110
8C#L_ 8c# 8e 8ee_	.
8C#J_ 8A 8a 8ee_	.
8C#L_ 8c# 8e 8ee_	.
8C#J] 8A 8a 8ee]	.
[8BB#XL 8B#X 8d#X [8dd#X	.
8BB#J] 8A 8a 8dd#]	.
=111	=111
[8C#L 8c# 8e [8ee	.
8C#J_ 8A 8a 8ee_	.
8C#L_ 8c# 8e 8ee_	.
8C#J] 8A 8a 8ee]	.
[8DL 8d 8f# [8ff#	.
8DJ] 8A 8a 8ff#]	.
=112	=112
[8C#L 8c# 8e [8ee	.
8C#J_ 8A 8a 8ee_	.
8C#L_ 8c# 8e 8ee_	.
8C#J] 8A 8a 8ee]	.
[8BBnL 8Bn 8dn [8ddn	.
8BBJ] 8E 8g#X 8dd]	.
=113	=113
[8AAL 8A 8c# [8cc#	.
8AAJ_ 8E 8e 8cc#_	.
8AAL_ 8A 8c# 8cc#_	.
8AAJ_ 8E 8e 8cc#_	.
8AAL_ 8A 8c# 8cc#_	.
8AAJ_ 8E 8e 8cc#_	.
=114	=114
8AAL_ 8A 8c# 8cc#_	.
8AAJ_ 8E 8e 8cc#_	.
8AAL_ 8A 8c# 8cc#_	.
8AAJ] 8E 8e 8cc#]	.
[8GG#XL 8G#X 8B#X [8b#X	.
8GG#J] 8E 8e 8b#]	.
=115	=115
[8AAL 8A 8c# [8cc#	.
8AAJ_ 8E 8e 8cc#_	.
8AAL_ 8A 8c# 8cc#_	.
8AAJ] 8E 8e 8cc#]	.
[8BBL 8B 8d [8dd	.
8BBJ] 8E 8e 8dd]	.
=116	=116
[8AAL 8A 8c# [8cc#	.
8AAJ_ 8E 8e 8cc#_	.
8AAL_ 8A 8c# 8cc#_	.
8AAJ] 8E 8e 8cc#]	.
[8GG#XL 8G#X 8Bn [8bn	.
8GG#J] 8E 8e 8b]	.
=117	=117
[8FF#L 8F# 8A [8a	.
8FF#J_ 8C# 8c# 8a_	.
8FF#L_ 8F# 8A 8a_	.
!LO:TX:a:t=cresc.	!
8FF#J_ 8C# 8c# 8a_	.
8FF#L_ 8F# 8A 8a_	.
8FF#J_ 8C# 8c# 8a_	.
=118	=118
8FF#L_ 8F# 8A 8a_	.
8FF#J_ 8C# 8c# 8a_	.
8FF#L_ 8F# 8A 8a_	.
8FF#J] 8C# 8c# 8a]	.
[8EE#XL 8E#X 8G#X [8g#X	.
8EE#J] 8C# 8c# 8g#]	.
=119	=119
[8FF#L 8F# 8A [8a	.
8FF#J_ 8C# 8c# 8a_	.
8FF#L_ 8F# 8A 8a_	.
8FF#J] 8C# 8c# 8a]	.
[8EE#XL 8E#X 8G#X [8g#X	.
8EE#J] 8C# 8c# 8g#]	.
=120	=120
[8FF#L 8F# 8A [8a	.
8FF#J_ 8C# 8c# 8a_	.
8FF#L_ 8F# 8A 8a_	.
8FF#J] 8C# 8c# 8a]	.
[8EEnL 8En 8A#X [8a#X	.
8EEJ] 8C# 8f# 8a#]	.
=121	=121
[8DDL 8D 8B [8b	.
8DDJ_ 8FF# 8f# 8b_	.
8DDL_ 8D 8B 8b_	.
8DDJ] 8FF# 8f# 8b]	.
[8AAA#XL 8AA#X 8c# [8cc#	sf
8AAA#J] 8FF# 8f# 8cc#]	.
=122	=122
[8BBBL 8BB 8d [8dd	.
8BBBJ_ 8FF# 8f# 8dd_	.
8BBBL_ 8BB 8d 8dd_	.
8BBBJ] 8FF# 8f# 8dd]	.
[8AAAnL 8AAn 8d#X [8dd#X	sf
8AAAJ] 8FF# 8b 8dd#]	.
=123	=123
[8GGG#XL 8GG#X 8e [8ee	.
8GGG#J_ 8EE 8b 8ee_	.
8GGG#L_ 8GG#X 8e 8ee_	.
8GGG#J] 8EE 8b 8ee]	.
[8DDnL 8D#X 8f# [8ff#	sf
8DDJ] 8BB 8b 8ff#]	.
=124	=124
[8EEL 8E 8gn [8ggn	.
8EEJ_ 8BB 8b 8gg_	.
8EEL_ 8E 8g 8gg_	.
8EEJ] 8BB 8b 8gg]	.
[8DDnL 8Dn 8g#X [8gg#X	sf
8DDJ] 8BB 8ee 8gg#]	.
=125	=125
2.CC# 2.AA 2.C# 2.a 2.ee 2.aa	.
=126	=126
12aaL	.
12gg#X	.
12bbJ	.
12aaL	.
12gg#X	.
12ff#J	.
20eeLL	.
20dd	.
20cc#J	.
20bL	.
20aJJ	.
=127	=127
2.F# 2.A 2.B 2.d#X 2.aa	sf
=128	=128
12aaL	.
12gg#X	.
12bbJ	.
12aaL	.
12gg#X	.
12ff#J	.
20eeLL	.
20dd#X	.
20cc#J	.
20bL	.
20aJJ	.
=129	=129
[12EL [12A [12c# [12e 12aa	f
12E_ 12A_ 12c#_ 12e_ 12gg#X	.
12EJ] 12A] 12c#] 12e] 12bb	.
12aaL	.
12gg#X	.
12ff#J	.
20eeLL	.
20ddn	.
20cc#J	.
20bL	.
20aJJ	.
=130	=130
12aaL	f
12gg#X	.
12bbJ	.
12aaL	.
12gg#X	.
12ff#J	.
20eeLL	.
20dd	.
20cc#J	.
20bL	.
20aJJ	.
=131	=131
12EEL [12cc# [12ee	sf
12FF# 12cc#_ 12ee_	.
12GG#XJ 12cc#_ 12ee_	.
12AAL 12cc#_ 12ee_	.
12BB 12cc#_ 12ee_	.
12C#J 12cc#_ 12ee_	.
12DL 12cc#_ 12ee_	.
12E 12cc#_ 12ee_	.
12F#J 12cc#_ 12ee_	.
=132	=132
12G#XL 12cc#_ 12ee_	.
12A 12cc#_ 12ee_	.
12BJ 12cc#_ 12ee_	.
8B#XL 8cc#_ 8ee_	.
8c#J 8cc#_ 8ee_	.
8dL 8cc#_ 8ee_	.
8d#XJ 8cc#_ 8ee_	.
=133	=133
[4e 4cc#] 4ee]	p
4e_ 4b 4dd	.
4e_ 4a 4cc#	.
=134	=134
[2E 2e] 2a 2cc#	.
4E] 4d 4g#X 4b	.
=135	=135
4A'` 4c# 4a	.
4r	.
[4ee	.
=136	=136
4AA'` 4C# 4E 4ee_	.
4AA'` 4C# 4E 4ee]	.
[4e	.
=137	=137
4C#'` 4E 4A 4e_	.
4C#'` 4E 4A 4e]	.
[4a	.
=138	=138
4E'` 4B 4a]	.
4E'` 4B 4g#X	.
[4dd	.
=139	=139
4A'` 4c# 4dd]	.
4A'` 4c# 4cc#	.
[4aa	.
=140	=140
4c#'` 4gn 4aa_	.
4c#'` 4g 4aa]	.
[4a	.
=141	=141
4d'` 4f# 4a_	.
4d'` 4f# 4a]	.
[4ff#	.
=142	=142
4e'` 4g#X 4ff#]	.
4e'` 4g#X 4ee	.
4dd'`	.
=143	=143
4A'` 4a 4cc#	.
4a	.
[4e [4ee	.
=144	=144
4AAA'` 4EE 4e_ 4ee_	.
4AAA'` 4EE 4e] 4ee]	.
[4E [4e	.
=145	=145
4CC#'` 4AA 4E_ 4e_	.
4CC#'` 4AA 4E] 4e]	.
[4A [4a	.
=146	=146
4EE'` 4BB 4A] 4a]	.
4EE'` 4BB 4G#X 4g#X	.
[4d [4dd	.
=147	=147
4AA'` 4C# 4d] 4dd]	.
4AA'` 4C# 4c# 4cc#	.
[4a [4aa	.
=148	=148
4C#'` 4Gn 4a_ 4aa_	.
4C#'` 4G 4a] 4aa]	.
[4A [4a	.
=149	=149
4D'` 4F# 4A_ 4a_	.
4D'` 4F# 4A] 4a]	.
[4f# [4ff#	.
=150	=150
4E'` 4G#X 4f#] 4ff#]	.
4E'` 4G#X 4e 4ee	.
4d'` 4dd	.
=151	=151
4AA'` 4A 4c# 4cc#	.
4AA'` 4A 4a	.
[4a [4aa	.
=152	=152
4C#'` 4Gn 4a_ 4aa_	.
4C#'` 4G 4a] 4aa]	.
!LO:TX:b:t=cresc.	!
[4A [4a	.
=153	=153
4D'` 4F# 4A_ 4a_	.
4D'` 4F# 4A] 4a]	.
[4f# [4ff#	.
=154	=154
4E'` 4G#X 4f#] 4ff#]	.
4E'` 4G#X 4e 4ee	.
4d'` 4dd	.
=155	=155
4AA'` 4A 4c# 4cc#	.
4AA'` 4A 4a	.
[4f# [4ff#	sf
=156	=156
4E'` 4G#X 4f#] 4ff#]	.
4E'` 4G#X 4e 4ee	.
4d'` 4dd	.
=157	=157
4AA'` 4A 4c# 4cc#	.
4AA'` 4A 4a	.
[4f#	f
=158	=158
4EE'` 4GG#X 4f#]	.
4EE'` 4GG#X 4e	.
[4d	.
=159	=159
!LO:TX:b:t=dim.	!
4AAA'` 4AA 4d]	.
4c#'`	.
4B'`	.
=160	=160
4A'	.
4Gn'	.
4F#'	.
=161	=161
4E'	.
4D'	.
4C#'	.
=162	=162
4BB'	.
4AA'	.
4GG'	.
=163	=163
4FFF# 4FF#	.
4FFF# 4FF#	.
4FFF# 4FF#	.
=164	=164
4FFF# 4FF#	.
4FFF# 4FF#	.
4FFF# 4FF#	.
=165	=165
4FFF# 4FF# [4D [4A [4cn [4d	sf
4FFF# 4FF# 4D_ 4A_ 4c_ 4d_	.
4FFF# 4FF# 4D_ 4A_ 4c_ 4d_	.
=166	=166
4FFF# 4FF# 4D_ 4A_ 4cn_ 4d_	.
4FFF# 4FF# 4D_ 4A_ 4c_ 4d_	.
4FFF# 4FF# 4D] 4A] 4c] 4d]	.
=167	=167
4GGG 4GG 4D 4G 4B 4d	p
4GG	.
4GG	.
=168	=168
4GG [4BB [4fn [4dd	.
4GG 4BB_ 4f_ 4dd_	.
4GG 4BB] 4f] 4dd]	.
=169	=169
4GG [4Cn [4e 4dd	.
4GG 4C_ 4e_ [4ccn	.
4GG 4C] 4e] 4cc_	.
=170	=170
4GG [4E [4cn 4ccn_	.
4GG 4E_ 4c_ 4cc]	.
[8GGL 8E_ 8c_ 8b	.
8GGJ] 8E] 8c] 8a	.
=171	=171
4GG [4A [4cn [4g	.
4GG 4A_ 4c_ 4g]	.
4GG 4A] 4c] 4f#	.
=172	=172
4GG [4F# [4cn [4e	.
4GG 4F#_ 4c_ 4e]	.
4GG 4F#] 4c] 4d	.
=173	=173
4GG [4G [4B [4d	.
4GG 4G_ 4B_ 4d_	.
4GG 4G] 4B] 4d]	.
=174	=174
4GG [4BB [4d [4g	.
4GG 4BB_ 4d_ 4g_	.
4GG 4BB] 4d] 4g]	.
=175	=175
4GG [4D [4f# [4a	.
4GG 4D_ 4f#] 4a]	.
[8GGL 8D_ 8g 8b	.
8GGJ] 8D] 8a 8ccn	.
=176	=176
4GG'` 4G 4g 4b	.
4G	.
4G	.
=177	=177
[8GL [8g	.
!LO:TX:b:t=cresc.	!
8GJ] 8g_ 8ffn	.
[8GL 8g_ 8ee	.
8GJ] 8g_ 8ffn	.
[8GL 8g_ 8ee	.
8GJ] 8g] 8ffn	.
=178	=178
[8GL [8B [8ffn	.
8GJ] 8B_ 8ff_ 8ddd	.
[8GL 8B_ 8ff_ 8ccc#	.
8GJ] 8B_ 8ff_ 8ddd	.
[8GL 8B_ 8ff_ 8ccc#	.
8GJ] 8B] 8ff] 8ddd	.
=179	=179
4G [4cn [4ee-X 4ddd	.
4G 4c_ 4ee-_ [4cccn	.
4G 4c] 4ee-] 4ccc_	.
=180	=180
4G [4e-X [4ccn 4cccn_	.
4G 4e-_ 4cc_ 4ccc]	.
[8GL 8e-_ 8cc_ 8bb-X	.
8GJ] 8e-] 8cc] 8aa	.
=181	=181
4G [4a [4ccn [4gg	p
4G 4a_ 4cc_ 4gg]	.
4G 4a] 4cc] 4ff#	.
=182	=182
4G [4f# [4ccn [4ee-X	.
4G 4f#_ 4cc_ 4ee-]	.
4G 4f#] 4cc] 4dd	.
=183	=183
8GL 8g [8b-X [8dd	.
8c#J 8b-_ 8dd_	.
8dL 8b-_ 8dd_	.
8c#J 8b-_ 8dd_	.
8e-XL 8b-_ 8dd_	.
8dJ 8b-] 8dd]	.
=184	=184
8cnL [8gg	.
8B-XJ 8gg_	.
8AL 8gg_	.
8GJ 8gg_	.
8F#L 8gg_	.
8E-XJ 8gg]	.
=185	=185
8DL [8ff# [8aa	.
8CnJ 8ff#_ 8aa_	.
8BB-XL 8ff#_ 8aa_	.
8AAJ 8ff#] 8aa]	.
8GGL 8gg 8bb-X	.
8FF#J 8aa 8cccn	.
=186	=186
8GGL [8gg [8bb-X	.
8FF#'`J 8gg] 8bb-]	.
8GGL	.
8FFnJ	.
8EE-XL	.
8DDJ	.
=187	=187
8CC#L [8a [8aa	f
8G#XJ 8a_ 8aa_	.
8AL 8a_ 8aa_	.
8G#XJ 8a_ 8aa_	.
8B-XL 8a_ 8aa_	.
8AJ 8a] 8aa]	.
=188	=188
8GnL [8dd	sf
8FnJ 8dd_	.
8EL 8dd_	.
8DJ 8dd_	.
8C#L 8dd_	.
8BB-XJ 8dd]	.
=189	=189
8AAL [8cc# [8ee	.
8GGJ 8cc#_ 8ee_	.
8FFnL 8cc#_ 8ee_	.
8EEJ 8cc#] 8ee]	.
8DDL 8dd 8ffn	.
8CC#J 8ee 8gg	.
=190	=190
8DDL [8dd [8ffn	.
8C#'`J 8dd] 8ff]	.
8DL	.
8C#J	.
8DL	.
8C#J	.
=191	=191
[8DL	f
8DJ_ 8ccc#	.
8DL_ 8ddd	.
8DJ_ 8ccc#	.
8DL_ 8eee-X	.
8DJ] 8ddd	.
=192	=192
[8GL 8cccn	.
8GJ_ 8bb-X	.
8GL_ 8aa	.
8GJ_ 8gg	.
8GL_ 8ff#	.
8GJ] 8ee-X	.
=193	=193
[8F#L [8A 8dd	.
8F#J_ 8A_ 8ccn	.
8F#L_ 8A_ 8b-X	.
8F#J] 8A] 8a	.
8GL 8B-X 8g	.
8AJ 8cn 8f#	.
=194	=194
[8GL [8B-X 8g	.
8G'`J] 8B-] 8f#	.
8gL	.
8fnJ	.
8e-XL	.
8dJ	.
=195	=195
[8AAAL [8AA 8c#	.
8AAAJ_ 8AA_ 8gg#X	.
8AAAL_ 8AA_ 8aa	.
8AAAJ_ 8AA_ 8gg#X	.
8AAAL_ 8AA_ 8bb-X	.
8AAAJ] 8AA] 8aa	.
=196	=196
[8DDL [8D 8ggn	.
8DDJ_ 8D_ 8ffn	.
8DDL_ 8D_ 8ee	.
8DDJ_ 8D_ 8dd	.
8DDL_ 8D_ 8cc#	.
8DDJ] 8D] 8b-X	.
=197	=197
[8C#L [8E 8a	.
8C#J_ 8E_ 8g	.
8C#L_ 8E_ 8fn	.
8C#J] 8E] 8e	.
8DL 8Fn 8d	.
8EJ 8G 8c#	.
=198	=198
[8DL [8Fn 8d	.
8D'`J] 8F] 8fn	.
8aL	.
8ddJ	.
8ffnL	.
8ddJ	.
=199	=199
8AL [8cc# [8ee	p
8GJ 8cc#_ 8ee_	.
8FnL 8cc#_ 8ee_	.
8EJ 8cc#] 8ee]	.
8DL 8dd 8ffn	.
8C#J 8ee 8gg	.
=200	=200
8DL [8dd [8ffn	.
8Fn'`J 8dd] 8ff]	.
8AL	.
8dJ	.
8fnL	.
8dJ	.
=201	=201
[8c#L [8e 8aa	.
8c#J_ 8e_ 8gg	.
8c#L_ 8e_ 8ffn	.
8c#J] 8e] 8ee	.
8dL 8fn 8dd	.
8eJ 8g 8cc#	.
=202	=202
[8dL [8fn 8dd	.
8d'`J] 8f] 8cc#	.
8ddL	.
8ccnJ	.
8bnL	.
8d#XJ 8a	.
=203	=203
8eL [8g#X [8b	.
8dnJ 8g#_ 8b_	.
8cnL 8g#_ 8b_	.
8BJ 8g#] 8b]	.
8AL 8a 8ccn	.
8G#XJ 8b 8dd	.
=204	=204
8AL [8a [8ccn	.
8cn'`J 8a] 8cc]	.
8eL	.
8aJ	.
8ccnL	.
8aJ	.
=205	=205
[8g#XL [8b 8eee	.
8g#J_ 8b_ 8ddd	.
8g#L_ 8b_ 8cccn	.
8g#J] 8b] 8bb	.
8aL 8ccn 8aa	.
8bJ 8dd 8gg#X	.
=206	=206
[8aL [8ccn 8aa	.
8a'`J] 8cc] 8ee	.
8ddL	.
8ccnJ	.
8bL	.
8aJ	.
=207	=207
!LO:TX:b:t=cresc.	!
8eL [8g#X [8b	.
8dJ 8g#_ 8b_	.
8cnL 8g#_ 8b_	.
8BJ 8g#] 8b]	.
8AL 8a 8ccn	.
8G#XJ 8b 8dd	.
=208	=208
8AL [8a [8ccn	.
8G#XJ 8a_ 8cc_	.
8AL 8a_ 8cc_	.
8BJ 8a_ 8cc]	.
8cnL 8a_ 8dd	.
8AJ 8a] 8ee	.
=209	=209
8F#L [8a [8dd#X	sf
8cnJ 8a_ 8dd#_	.
8BL 8a_ 8dd#_	.
8AJ 8a_ 8dd#]	.
8GnL 8a_ 8ee	.
8F#J 8a] 8ff#	.
=210	=210
8GL [8b [8ee	sf
8BJ 8b_ 8ee_	.
8AL 8b_ 8ee_	.
8GJ 8b_ 8ee]	.
8F#L 8b_ 8ff#	.
8EJ 8b] 8gg	.
=211	=211
8D#XL [8b [8ff#	sf
8F#J 8b_ 8ff#_	.
8EL 8b_ 8ff#_	.
8D#XJ 8b_ 8ff#]	.
8C#L 8b_ 8gg	.
8BBJ 8b] 8aa	.
=212	=212
8EL [8b [8gg	sf
8D#XJ 8b_ 8gg_	.
8EL 8b_ 8gg_	.
8F#J 8b_ 8gg]	.
8GL 8b_ 8aa	.
8EJ 8b] 8bb	.
=213	=213
8C#L [8ee [8aa#X	sf
8GJ 8ee_ 8aa#_	.
8F#L 8ee_ 8aa#_	.
8EJ 8ee_ 8aa#]	.
8DnL 8ee_ 8bb	.
8C#J 8ee] 8ccc#	.
=214	=214
8DL [8ff# [8bb	sf
8F#J 8ff#_ 8bb_	.
8EL 8ff#_ 8bb_	.
8DJ 8ff#_ 8bb]	.
8C#L 8ff#_ 8ccc#	.
8BBJ 8ff#] 8ddd	.
=215	=215
8AA#XL [8ff# [8ccc#	sf
8C#J 8ff#_ 8ccc#_	.
8BBL 8ff#_ 8ccc#_	.
8AA#XJ 8ff#_ 8ccc#]	.
8GG#XL 8ff#_ 8ddd	.
8FF#J 8ff#] 8eee	.
=216	=216
8BBL [8ff# [8ddd	ff
8DJ 8ff#_ 8ddd_	.
8BBL 8ff#_ 8ddd_	.
8DJ 8ff#_ 8ddd]	.
8BBL 8ff#_ 8ccc#	.
8DJ 8ff#] 8bb	.
=217	=217
8GGnL [8ee#X [8ddd	sf
8BBJ 8ee#_ 8ddd_	.
8GGL 8ee#_ 8ddd_	.
8BBJ 8ee#_ 8ddd]	.
8GGL 8ee#_ 8ccc#	.
8BBJ 8ee#] 8bb	.
=218	=218
8GGL [8ee#X [8ddd	sf
8BBJ 8ee#_ 8ddd_	.
8GGL 8ee#_ 8ddd_	.
8BBJ 8ee#_ 8ddd]	.
8GGL 8ee#_ 8ccc#	.
8BBJ 8ee#] 8bb	.
=219	=219
[4FF# [4C# 4ff# 4aa#X	.
!	!LO:DY:a
4FF#_ 4C#] 4a#X [4ff#	sf
8FF#L_ 8BB 8b 8ff#_	.
8FF#J] 8AA#X 8cc# 8ff#]	.
=220	=220
[4FF# [4D	.
!	!LO:DY:a
4FF#_ 4D] 4b [4ff#	sf
8FF#L_ 8C# 8cc# 8ff#_	.
8FF#J] 8BB 8dd 8ff#]	.
=221	=221
[4FF# [4E	.
!	!LO:DY:a
4FF#_ 4E] 4cc# [4ff#	sf
8FF#L_ 8D 8dd 8ff#_	.
8FF#J] 8C# 8ee 8ff#]	.
=222	=222
[4FF# [4D	.
!	!LO:DY:a
4FF#_ 4D] 4b [4ff#	sf
8FF#L_ 8C# 8cc# 8ff#_	.
8FF#J] 8BB 8dd 8ff#]	.
=223	=223
[4FF# [4C#	.
4FF#_ 4C#] [4ff# 4aa#X	sf
8FF#L_ 8BB 8ff#_ 8bb	.
8FF#J] 8AA#X 8ff#] 8ccc#	.
=224	=224
[4FF# [4D	.
4FF#_ 4D] [4ff# 4bb	sf
8FF#L_ 8C# 8ff#_ 8ccc#	.
8FF#J] 8BB 8ff#] 8ddd	.
=225	=225
[4FF# [4E	.
4FF#_ 4E] [4ff# 4ccc#	sf
8FF#L_ 8D 8ff#_ 8ddd	.
8FF#J] 8C# 8ff#] 8eee	.
=226	=226
[4FF# [4D	.
4FF#_ 4D] [4ff# 4bb	sf
8FF#L_ 8C# 8ff#_ 8ccc#	.
8FF#J] 8BB 8ff#] 8ddd	.
=227	=227
[4FF# [4C#	p
4FF#_ 4C#] [4ff# 4aa#X	.
8FF#L_ 8BB 8ff#_ 8bb	.
8FF#J] 8AA#X 8ff#] 8ccc#	.
=228	=228
[4CC# [4AA#X	.
4CC#_ 4AA#] 4f#	.
8CC#L_ 8GG#X 8g#X	.
8CC#J] 8FF# 8a#X	.
=229	=229
[4CC# [4FF#	.
4CC#] 4FF#_ 4a#X	.
8BBBL 8FF#_ 8b	.
8AAA#XJ 8FF#] 8cc#	.
=230	=230
[4AAA#X [4FF#	.
4AAA#] 4FF#_ 4ff#	.
8GGG#XL 8FF#_ 8gg#X	.
8FFF#J 8FF#] 8aa#X	.
=231	=231
[4FFF# [4FF#	.
4FFF#] 4FF#_ 4aa#X	.
8GGG#XL 8FF#_ 8bb	.
8AAA#XJ 8FF#] 8ccc#	.
=232	=232
[4AAA#X [4FF#	.
4AAA#] 4FF#_ 4ccc#	.
8BBBL 8FF#_ 8bb	.
8CC#J 8FF#] 8aa#X	.
=233	=233
[4CC# [4FF#	.
4CC#] 4FF#_ 4aa#X	.
8BBBL 8FF#_ 8gg#X	.
8AAA#XJ 8FF#] 8ff#	.
=234	=234
[4AAA#X [4FF#	.
4AAA#] 4FF#_ 4ff#	.
8GGG#XL 8FF#_ 8gg#X	.
8FFF#J 8FF#] 8aa#X	.
=235	=235
[4FFF# [4FF#	.
4FFF#] 4FF#_ 4aa#X	.
8GGG#XL 8FF#_ 8bb	.
8AAA#XJ 8FF#] 8ccc#	.
=236	=236
[4AAA#X [4FF#	.
4AAA#] 4FF#_ 4ccc#	.
8BBBL 8FF#_ 8bb	.
8CC#J 8FF#] 8aa#X	.
=237	=237
[4CC# [4FF#	.
4CC#] 4FF#_ 4aa#X	.
8BBBL 8FF#_ 8gg#X	.
8AAA#XJ 8FF#] 8ff#	.
=238	=238
[4AAA#X [4FF#	.
4AAA#] 4FF#_ 4ff#	.
8GGG#XL 8FF#_ 8gg#X	.
8FFF#J 8FF#] 8aa#X	.
=239	=239
[4FFF#	.
4FFF#] 4aa#X	.
[8FF#L 8bb	.
8FF#J] [8ccc#	.
=240	=240
[4FFF# 4ccc#]	.
4FFF#] [4cc# [4ff# [4aa#X [4ccc#	.
4FF# 4cc#_ 4ff#_ 4aa#_ 4ccc#_	.
=241	=241
[4FFF# 4cc#] 4ff#] 4aa#X] 4ccc#]	.
4FFF#] [4a#X [4cc# [4ff# [4aa#X	.
4FF# 4a#_ 4cc#_ 4ff#_ 4aa#_	.
=242	=242
[4FFF# 4a#X] 4cc#] 4ff#] 4aa#X]	.
4FFF#] [4f# [4a#X [4cc# [4ff#	.
4FF# 4f#_ 4a#_ 4cc#_ 4ff#_	.
=243	=243
[4FFF# 4f#] 4a#X] 4cc#] 4ff#]	.
4FFF#] [4c# [4f# [4a#X [4cc#	.
4FF# 4c#_ 4f#_ 4a#_ 4cc#_	.
=244	=244
[4FFF# 4c#] 4f#] 4a#X] 4cc#]	.
4FFF#] [4A#X [4c# [4f# [4a#X	.
4FF# 4A#_ 4c#_ 4f#_ 4a#_	.
=245	=245
[4FFF# 4A#X] 4c#] 4f#] 4a#X]	.
4FFF#] [4F# [4A#X [4c# [4f#	.
4FF# 4F#_ 4A#_ 4c#_ 4f#_	.
=246	=246
[4FFF# 4F#] 4A#X] 4c#] 4f#]	.
4FFF#] [4C# [4F# [4A#X [4c#	.
4FF# 4C#_ 4F#_ 4A#_ 4c#_	.
=247	=247
!LO:TX:b:t=cresc.	!
[4FFF# 4C#] 4F#] 4A#X] 4c#]	.
4FFF#] [4AA#X [4C# [4F# [4A#X	.
4FF# 4AA#_ 4C#_ 4F#_ 4A#_	.
=248	=248
[4EE#X 4AA#X] 4C#] 4F#] 4A#X]	.
4EE#] [4AA#X [4C# [4F#	.
4FF# 4AA#_ 4C#_ 4F#_	.
=249	=249
[4CC# 4AA#X] 4C#] 4F#]	.
4CC#] [4AA#X [4C# [4F#	.
4FF# 4AA#_ 4C#_ 4F#_	.
=250	=250
[4AAA#X 4AA#X] 4C#] 4F#]	.
4AAA#] [4AA#X [4C# [4F#	.
[4FF# 4AA#_ 4C#_ 4F#_	.
=251	=251
[2.FFF# 2.FF#] 2.AA#X_ 2.C#_ 2.F#_	p
=252	=252
!LO:TX:b:t=dim.	!
2FFF#] 2AA#X] 2C#] 2F#]	.
[4FF# [4AA#X [4C# [4F#	.
=253	=253
[2.FFF# 2.FF#] 2.AA#X_ 2.C#_ 2.F#_	.
=254	=254
2FFF#] 2AA#X] 2C#] 2F#]	.
[4FF# [4AA#X [4C# [4F#	pp
=255	=255
!LO:TX:a:B:t=99,5	!
[2.FFF# 2.FF#_ 2.AA#X_ 2.C#_ 2.F#_	.
=256	=256
2FFF#;] 2FF#] 2AA#X] 2C#] 2F#]	.
!LO:TX:a:B:t=199	!
[4ff#	p
=257	=257
4BB'` 4D#X 4F# 4ff#_	.
4BB'` 4D#X 4F# 4ff#]	.
[4f#	.
=258	=258
4D#X'` 4F# 4B 4f#_	.
4D#X'` 4F# 4B 4f#]	.
[4b	.
=259	=259
4F#'` 4c# 4b]	.
[8F#L [8c# 8a#X	.
8F#'`J] 8c#] 8cc#	.
[4ee	.
=260	=260
4B 4d#X 4ee]	.
4dd#X	.
4r	.
=261	=261
!LO:TX:a:B:t=99,5	!
2r	.
!LO:TX:a:B:t=199	!
[4ff#	p
=262	=262
!LO:TX:b:t=dim.	!
4BB'` 4Dn 4F# 4ff#_	.
4BB'` 4D 4F# 4ff#]	.
[4f#	.
=263	=263
4D'` 4F# 4B 4f#_	.
4D'` 4F# 4B 4f#]	.
[4b	.
=264	=264
4F#'` 4c# 4b]	.
[8F#L [8c# 8a#X	.
8F#'`J] 8c#] 8cc#	.
[4ee	.
=265	=265
4B 4dn 4ee]	.
4dd	.
4r	.
=266	=266
!LO:TX:a:B:t=99,5	!
2r	.
!LO:TX:a:B:t=adagio	!
[4dd	pp
=267	=267
[4A [4e [4g 4dd]	.
8AL_ 8e_ 8g_ 8cc#	.
8AJ_ 8e_ 8g_ 8ee	.
4A_ 4e_ 4g_ [4gg	.
=268	=268
!LO:TX:a:B:t=55	!
2.A;] 2.e] 2.g] 2.gg]	.
=269	=269
!LO:TX:a:B:t=tempo I	!
4DD	.
4DD	.
4DD	.
=270	=270
4DD [4cn [4f# [4a	p
4DD 4c_ 4f#_ 4a_	.
4DD 4c] 4f#] 4a]	.
=271	=271
4DD [4B [4d 4a	.
4DD 4B_ 4d_ [4g	.
4DD 4B_ 4d_ 4g_	.
=272	=272
4DD 4B_ 4d_ 4g_	.
4DD 4B] 4d] 4g]	.
[8DDL [8G [8B 8f#	.
8DDJ] 8G] 8B] 8e	.
=273	=273
4DD [4E [4G [4d	.
4DD 4E_ 4G_ 4d]	.
4DD 4E] 4G] 4c#	.
=274	=274
4DD [4C# [4G [4B	.
4DD 4C#_ 4G_ 4B]	.
4DD 4C#] 4G] 4A	.
=275	=275
4DD [4D [4F# [4A	.
4DD 4D_ 4F#_ 4A_	.
4DD 4D] 4F#] 4A]	.
=276	=276
4DD [4FF# [4A [4d	.
4DD 4FF#_ 4A_ 4d_	.
4DD 4FF#] 4A] 4d]	.
=277	=277
4DD [4AA [4c# [4e	.
4DD 4AA_ 4c#] 4e]	.
[8DDL 8AA_ 8d 8f#	.
8DDJ] 8AA] 8e 8g	.
=278	=278
4DD 4D 4d 4f#	.
4D	.
4D	.
=279	=279
[8DL [8d	.
!LO:TX:b:t=cresc.	!
8DJ] 8d_ 8ccn	.
[8DL 8d_ 8b	.
8DJ] 8d_ 8ccn	.
[8DL 8d_ 8b	.
8DJ] 8d] 8ccn	.
=280	=280
[8DL [8F# [8ccn	.
8DJ] 8F#_ 8cc_ 8aa	.
[8DL 8F#_ 8cc_ 8gg#X	.
8DJ] 8F#_ 8cc_ 8aa	.
[8DL 8F#_ 8cc_ 8gg#X	.
8DJ] 8F#] 8cc] 8aa	.
=281	=281
4D [4G [4b 4aa	.
4D 4G_ 4b_ [4ggn	sf
4D 4G] 4b] 4gg_	.
=282	=282
4D [4B [4g 4gg_	.
4D 4B_ 4g_ 4gg]	.
[8DL 8B_ 8g_ 8ff#	.
8DJ] 8B] 8g] 8ee	.
=283	=283
4D [4e [4g [4dd	.
4D 4e_ 4g_ 4dd]	.
4D 4e] 4g] 4cc#	.
=284	=284
4D [4c# [4g [4b	p
4D 4c#_ 4g_ 4b]	.
4D 4c#] 4g] 4a	.
=285	=285
4D [4d [4f# [4a	.
4D 4d_ 4f#_ 4a_	.
4D 4d] 4f#] 4a]	.
=286	=286
4D [4F# [4a [4dd	.
4D 4F#_ 4a_ 4dd_	.
4D 4F#] 4a] 4dd]	.
=287	=287
4D [4A [4cc# [4ee	.
4D 4A_ 4cc#] 4ee]	.
[8DL 8A_ 8dd 8ff#	.
8DJ] 8A] 8ee 8gg	.
=288	=288
4D'` 4d 4dd 4ff#	.
4D	.
4D	.
=289	=289
!LO:TX:b:t=cresc.	!
[4FF# 4D [4A [4d	.
4FF#_ 4D 4A_ 4d_	.
4FF#_ 4D 4A_ 4d_	.
=290	=290
4FF#] 4D 4A] 4d]	.
4GG 4D 4B 4e	.
4AA 4D 4cn 4f#	.
=291	=291
[4BB 4D [4d 4a	.
4BB_ 4D 4d_ [4g	sf
4BB_ 4D 4d_ 4g_	.
=292	=292
4BB_ 4D 4d_ 4g_	p
4BB] 4D 4d] 4g]	.
4AA 4D 4cn [4f#	.
=293	=293
[4GG 4D 4B 4f#]	.
4GG] 4D 4e	.
4GG#X 4E [4d	sf
=294	=294
[4AA 4E 4d]	.
4AA] 4E 4c#	.
4AA 4Gn [4B	sf
=295	=295
[8DL [8F# 8B]	.
8DJ] 8F#] 8d	.
[8DL 8f#	.
8DJ] 8a	.
[8DL 8dd	.
8DJ] 8ff#	.
=296	=296
[8DL 8aa	.
8DJ] 8ff#	.
[12DL 12dd	.
12D_ 12a	.
12DJ] 12f#	.
[12DL 12a	.
12D_ 12g	.
12DJ] 12e	.
=297	=297
[4FF# 4D [4d	.
4FF#_ 4D 4d_ [4dd	.
4FF#_ 4D 4d_ 4dd_	.
=298	=298
4FF#] 4D 4d] 4dd]	.
4GG 4D 4e 4ee	.
4AA 4D 4f# 4ff#	.
=299	=299
[4BB 4D 4a 4aa	.
4BB_ 4D [4g [4gg	sf
4BB_ 4D 4g_ 4gg_	.
=300	=300
4BB_ 4D 4g_ 4gg_	p
4BB] 4D 4g] 4gg]	.
4AA 4D [4f# [4ff#	.
=301	=301
[4GG 4D 4f#] 4ff#]	.
4GG] 4D 4e 4ee	.
4GG#X 4E [4d [4dd	sf
=302	=302
[4AA 4E 4d] 4dd]	.
4AA] 4E 4c# 4cc#	.
4AA 4Gn [4A [4a	.
=303	=303
[8DL [8F# 8A] 8a]	.
!LO:TX:b:t=cresc.	!
8DJ] 8F#] 8dd	.
[8DL 8ff#	.
8DJ] 8dd	.
[8DL 8aa	.
8DJ] 8ff#	.
=304	=304
[8DL 8ddd	.
8DJ] 8ccc#	.
[8DL 8bb	.
8DJ] 8aa	.
[8FF#L [8D 8gg	.
8FF#J] 8D] [8ff#	.
=305	=305
[4GG 4D 4ff#]	p
4GG] 4D 4e 4ee	.
4GG#X 4E [4d [4dd	sf
=306	=306
[4AA 4E 4d] 4dd]	.
4AA] 4E 4c# 4cc#	.
4AA 4Gn [4A [4a	sf
=307	=307
[12DL [12F# 12A] 12a]	.
12D_ 12F#_ 12dd	.
12DJ] 12F#] 12cc#	.
!LO:TX:b:t=cresc.	!
[12DL 12dd	.
12D_ 12ee	.
12DJ] 12ff#	.
[16DLL 16gg	.
16DJ_ 16aa	.
16DL_ 16bb	.
16DJJ] 16ccc#	.
=308	=308
[12DL 12ddd	.
12D_ 12ccc#	.
12DJ] 12eee	.
[12DL 12ddd	.
12D_ 12ccc#	.
12DJ] 12bb	.
[12FF#L [12D 12aa	.
12FF#_ 12D_ 12gg	.
12FF#J] 12D] [12ff#	.
=309	=309
[4GG 4D 4ff#]	.
4GG] 4D 4e 4ee	.
4GG#X 4E [4d [4dd	sf
=310	=310
[4AA 4E 4d] 4dd]	.
4AA] 4E 4c# 4cc#	.
4AA 4Gn 4e 4ee	sf
=311	=311
4D'` 4F# 4d 4dd	.
2r	.
=312	=312
2.D [2.A 2.f# 2.b	.
=313	=313
2.C# 2.A] 2.e [2.a	.
=314	=314
[4BB [4E 4d 4a]	.
8BBL_ 8E_ 8g#X	.
8BBJ_ 8E_ 8b	.
4BB] 4E_ [4dd	.
=315	=315
4AA 4E] 4dd]	.
4cc#	.
4r	.
=316	=316
2.Gn [2.d 2.b 2.ee	.
=317	=317
2.F# 2.d] 2.a [2.dd	.
=318	=318
[4E [4A 4g 4dd]	.
8EL_ 8A_ 8cc#	.
8EJ_ 8A_ 8ee	.
4E] 4A_ [4gg	.
=319	=319
4D 4A] 4gg]	.
4ff#	.
4r	.
=320	=320
[8DL [8A [8f#	.
8DJ_ 8A_ 8f#_ 8b	.
8DL_ 8A_ 8f#_ 8a#X	.
8DJ_ 8A_ 8f#_ 8b	.
8DL_ 8A_ 8f#_ 8cc#	.
8DJ] 8A_ 8f#_ 8b	.
=321	=321
[8C#L 8A_ 8f#] [8an	.
8C#J_ 8A_ 8e 8a_	.
8C#L_ 8A_ 8d#X 8a_	.
8C#J_ 8A_ 8e 8a_	.
8C#L_ 8A_ 8f# 8a_	.
8C#J] 8A] 8e 8a]	.
=322	=322
[8BBL [8E [8dn 8g#X	.
8BBJ_ 8E_ 8d] 8a	.
8BBL_ 8E_ 8b	.
8BBJ_ 8E_ 8cc#	.
8BBL_ 8E_ 8dd	.
8BBJ] 8E_ 8ee	.
=323	=323
[8AAL 8E_ 8dd	.
8AAJ] 8E] 8cc#	.
8bL	.
8aJ	.
8g#XL	.
8aJ	.
=324	=324
[8GnL [8d [8b	.
8GJ_ 8d_ 8b_ 8ee	.
8GL_ 8d_ 8b_ 8dd#X	.
8GJ_ 8d_ 8b_ 8ee	.
8GL_ 8d_ 8b_ 8ff#	.
8GJ] 8d_ 8b_ 8ee	.
=325	=325
[8F#L 8d_ 8b] [8ddn	.
8F#J_ 8d_ 8a 8dd_	.
8F#L_ 8d_ 8g#X 8dd_	.
8F#J_ 8d_ 8a 8dd_	.
8F#L_ 8d_ 8b 8dd_	.
8F#J] 8d] 8a 8dd]	.
=326	=326
[8EL [8A [8gn 8cc#	f
8EJ_ 8A_ 8g] 8dd	.
8EL_ 8A_ 8ee	.
8EJ_ 8A_ 8ff#	.
8EL_ 8A_ 8gg	.
8EJ] 8A_ 8aa	.
=327	=327
[8DL 8A_ 8gg	.
8DJ] 8A] 8ff#	.
8eeL	.
8ddJ	.
8cc#L	.
8ddJ	.
=328	=328
[8BBL [8D [8E 8gg#X	sf
8BBJ_ 8D_ 8E_ 8aa	.
8BBL_ 8D_ 8E_ 8bb	.
8BBJ_ 8D_ 8E_ 8ccc#	.
8BBL_ 8D_ 8E_ 8ddd	.
8BBJ] 8D] 8E_ 8eee	.
=329	=329
[8AAL [8C# 8E_ 8ddd	.
8AAJ] 8C#] 8E] 8ccc#	.
8bbL	.
8aaJ	.
8gg#XL	.
8aaJ	.
=330	=330
[8BL [8d [8e 8gg#X	sf
8BJ_ 8d_ 8e_ 8aa	.
8BL_ 8d_ 8e_ 8bb	.
8BJ_ 8d_ 8e_ 8ccc#	.
8BL_ 8d_ 8e_ 8ddd	.
8BJ] 8d] 8e_ 8eee	.
=331	=331
[8AL [8c# 8e_ 8ddd	.
8AJ] 8c#] 8e] 8ccc#	.
8bbL	.
8aaJ	.
8gg#XL	.
8aaJ	.
=332	=332
[8BBL [8D [8E 8gg#X	sf
8BBJ_ 8D_ 8E_ 8aa	.
8BBL_ 8D_ 8E_ 8bb	.
8BBJ_ 8D_ 8E_ 8ccc#	.
8BBL_ 8D_ 8E_ 8ddd	.
8BBJ] 8D] 8E] 8eee	.
=333	=333
[8AAL [8C# [8E 8ddd	.
8AAJ] 8C#] 8E] 8ccc#	.
8bbL	.
8aaJ	.
8gg#XL	.
8ff#J	.
=334	=334
!LO:TX:b:t=dim.	!
8eeL	.
8ddJ	.
8cc#L	.
8bJ	.
8aL	.
8g#XJ	.
=335	=335
[2.a	p
=336	=336
2.a]	.
=337	=337
[4c# [4e [4a#X	pp
4F#'` 4c#_ 4e_ 4a#_	.
4F#'` 4c#] 4e] 4a#]	.
=338	=338
[4d [4f# [4b	.
4BB'` 4d_ 4f#_ 4b_	.
4BB'` 4d] 4f#] 4b]	.
=339	=339
[4e [4a#X [4cc#	.
4FF#'` 4e_ 4a#_ 4cc#_	.
4FF#'` 4e] 4a#] 4cc#]	.
=340	=340
[4f# [4b [4dd	.
4BBB'` 4f#_ 4b_ 4dd_	.
4BBB'` 4f#] 4b] 4dd]	.
=341	=341
[4f# [4an [4ccn [4dd#X	.
4B'` 4f#_ 4a_ 4cc_ 4dd#_	.
4B'` 4f#] 4a] 4cc] 4dd#]	.
=342	=342
[4g [4b 4ee	.
4E'` 4g_ 4b_ 4ff#	.
4E'` 4g] 4b] 4gg	.
=343	=343
[4f# [4a [4ddn	.
4A'` 4f#] 4a] 4dd]	.
4AA'` 4e 4g 4cc#	.
=344	=344
8D'`L 8f# 8dd	.
8f#J 8ff#	.
8eL 8ee	.
8dJ 8dd	.
8c#L 8cc#	.
8BJ 8b	.
=345	=345
!LO:TX:b:t=cresc.	!
[4A#X [4a#X	.
4F# 4A#_ 4a#_	.
4F# 4A#] 4a#]	.
=346	=346
[4B [4b	.
4F# 4B_ 4b_	.
4F# 4B] 4b]	.
=347	=347
[4A#X [4c# [4a#X [4cc#	.
4F# 4A#_ 4c#_ 4a#_ 4cc#_	.
4F# 4A#] 4c#] 4a#] 4cc#]	.
=348	=348
[4B [4d [4b [4dd	.
4F# 4B_ 4d_ 4b_ 4dd_	.
4F# 4B] 4d] 4b] 4dd]	.
=349	=349
[4B [4e [4b [4ee	.
4G 4B_ 4e_ 4b_ 4ee_	.
4G 4B] 4e] 4b] 4ee]	.
=350	=350
[4B [4e#X [4b [4ee#X	.
4G 4B_ 4e#_ 4b_ 4ee#_	.
4G 4B] 4e#] 4b] 4ee#]	.
=351	=351
[8F#L 8A#X 8a#X [8ff#	p
8F#J_ 8c# 8cc# 8ff#_	.
8F#L_ 8A#X 8a#X 8ff#_	.
8F#J_ 8c# 8cc# 8ff#_	.
8F#L_ 8A#X 8a#X 8ff#_	.
8F#J_ 8c# 8cc# 8ff#_	.
=352	=352
8F#L_ 8A#X 8a#X 8ff#_	.
8F#J_ 8c# 8cc# 8ff#_	.
8F#L_ 8A#X 8a#X 8ff#_	.
8F#J] 8c# 8cc# 8ff#]	.
[8GnL 8B 8b [8ee#X	.
8GJ] 8c# 8cc# 8ee#]	.
=353	=353
[8F#L 8A#X 8a#X [8ff#	.
8F#J_ 8c# 8cc# 8ff#_	.
8F#L_ 8A#X 8a#X 8ff#_	.
8F#J] 8c# 8cc# 8ff#]	.
[8GL 8B 8b [8ee#X	.
8GJ] 8c# 8cc# 8ee#]	.
=354	=354
[8F#L 8A#X 8a#X [8ff#	.
8F#J_ 8c# 8cc# 8ff#_	.
8F#L_ 8A#X 8a#X 8ff#_	.
8F#J] 8c# 8cc# 8ff#]	.
[8GL 8B 8b [8ee#X	.
8GJ] 8c# 8cc# 8ee#]	.
=355	=355
[8F#L 8A#X 8a#X [8ff#	.
8F#J_ 8c# 8cc# 8ff#_	.
8F#L_ 8A#X 8a#X 8ff#_	.
8F#J_ 8c# 8cc# 8ff#_	.
8F#L_ 8A#X 8a#X 8ff#_	.
8F#J_ 8c# 8cc# 8ff#_	.
=356	=356
8F#L_ 8A#X 8a#X 8ff#_	.
8F#J_ 8c# 8cc# 8ff#_	.
8F#L_ 8A#X 8a#X 8ff#_	.
8F#J] 8c# 8cc# 8ff#]	.
[8D#XL 8A#X 8a#X [8ff#	.
8D#J] 8c# 8cc# 8ff#]	.
=357	=357
[8EL 8A#X 8a#X [8gg	.
8EJ_ 8c# 8cc# 8gg_	.
8EL_ 8A#X 8a#X 8gg_	.
8EJ] 8c# 8cc# 8gg]	.
[8D#XL 8A#X 8a#X [8ff#	.
8D#J] 8c# 8cc# 8ff#]	.
=358	=358
[8EL 8A#X 8a#X [8gg	.
8EJ_ 8c# 8cc# 8gg_	.
8EL_ 8A#X 8a#X 8gg_	.
8EJ] 8c# 8cc# 8gg]	.
[8D#XL 8A#X 8a#X [8ff#	.
8D#J] 8c# 8cc# 8ff#]	.
=359	=359
[8EL 8A#X 8a#X [8gg	.
8EJ_ 8c# 8cc# 8gg_	.
8EL_ 8A#X 8a#X 8gg_	.
8EJ_ 8c# 8cc# 8gg_	.
8EL_ 8A#X 8a#X 8gg_	.
8EJ_ 8c# 8cc# 8gg_	.
=360	=360
8EL_ 8A#X 8a#X 8gg_	.
8EJ_ 8c# 8cc# 8gg_	.
8EL_ 8A#X 8a#X 8gg_	.
8EJ_ 8c# 8cc# 8gg_	.
8EL_ 8A#X 8a#X 8gg_	.
8EJ] 8c# 8cc# 8gg]	.
=361	=361
!LO:TX:b:t=cresc.	!
[8EL 8An 8an [8gg	.
8EJ_ 8c# 8cc# 8gg_	.
8EL_ 8A 8a 8gg_	.
8EJ] 8c# 8cc# 8gg]	.
[8D#XL 8A 8a [8ff#	.
8D#J] 8c# 8cc# 8ff#]	.
=362	=362
[8EL 8A 8a [8gg	.
8EJ_ 8c# 8cc# 8gg_	.
8EL_ 8A 8a 8gg_	.
8EJ] 8c# 8cc# 8gg]	.
[8D#XL 8A 8a [8ff#	.
8D#J] 8c# 8cc# 8ff#]	.
=363	=363
[8EL 8A 8a [8gg	.
8EJ_ 8c# 8cc# 8gg_	.
8EL_ 8A 8a 8gg_	.
8EJ_ 8c# 8cc# 8gg_	.
8EL_ 8A 8a 8gg_	.
8EJ_ 8c# 8cc# 8gg_	.
=364	=364
8EL_ 8A 8a 8gg_	.
8EJ_ 8c# 8cc# 8gg_	.
8EL_ 8A 8a 8gg_	.
8EJ] 8c# 8cc# 8gg]	.
!	!LO:DY:a
[8EL 8A 8g [8gg	p
8EJ] 8c# 8cc# 8gg]	.
=365	=365
[8DL 8d 8f# [8ff#	.
8DJ_ 8A 8a 8ff#_	.
8DL_ 8d 8f# 8ff#_	.
8DJ] 8A 8a 8ff#]	.
[8EL 8e 8g [8gg	.
8EJ] 8A 8a 8gg]	.
=366	=366
[8DL 8d 8f# [8ff#	.
8DJ_ 8A 8a 8ff#_	.
8DL_ 8d 8f# 8ff#_	.
8DJ] 8A 8a 8ff#]	.
[8C#L 8c# 8e [8ee	.
8C#J] 8F# 8a#X 8ee]	.
=367	=367
[8BBL 8B 8d [8dd	.
8BBJ_ 8F# 8f# 8dd_	.
8BBL_ 8B 8d 8dd_	.
8BBJ_ 8F# 8f# 8dd_	.
8BBL_ 8B 8d 8dd_	.
8BBJ_ 8F# 8f# 8dd_	.
=368	=368
8BBL_ 8B 8d 8dd_	.
8BBJ_ 8F# 8f# 8dd_	.
8BBL_ 8B 8d 8dd_	.
8BBJ] 8F# 8f# 8dd]	.
[8C#L 8c# 8e [8ee	.
8C#J] 8F# 8f# 8ee]	.
=369	=369
[8BBL 8B 8d [8dd	.
8BBJ_ 8F# 8f# 8dd_	.
8BBL_ 8B 8d 8dd_	.
8BBJ] 8F# 8f# 8dd]	.
[8C#L 8c# 8e [8ee	.
8C#J] 8F# 8f# 8ee]	.
=370	=370
[8BBL 8B 8d [8dd	.
8BBJ_ 8F# 8f# 8dd_	.
8BBL_ 8B 8d 8dd_	.
8BBJ] 8F# 8f# 8dd]	.
[8AAL 8A 8cn [8ccn	.
8AAJ] 8D 8f# 8cc]	.
=371	=371
[8GGL 8G 8B [8b	.
8GGJ_ 8D 8d 8b_	.
8GGL_ 8G 8B 8b_	.
!LO:TX:a:t=cresc.	!
8GGJ_ 8D 8d 8b_	.
8GGL_ 8G 8B 8b_	.
8GGJ_ 8D 8d 8b_	.
=372	=372
8GGL_ 8G 8B 8b_	.
8GGJ_ 8D 8d 8b_	.
8GGL_ 8G 8B 8b_	.
8GGJ] 8D 8d 8b]	.
[8AAL 8A 8cn [8ccn	.
8AAJ] 8D 8d 8cc]	.
=373	=373
[8GGL 8G 8B [8b	.
8GGJ_ 8D 8d 8b_	.
8GGL_ 8G 8B 8b_	.
8GGJ] 8D 8d 8b]	.
[8AAL 8A 8cn [8ccn	.
8AAJ] 8D 8d 8cc]	.
=374	=374
[8GGL 8G 8B [8b	.
8GGJ_ 8D 8d 8b_	.
8GGL_ 8G 8B 8b_	.
8GGJ] 8D 8d 8b]	.
!	!LO:DY:a
[8EEL 8E 8c# [8cc#	sf
8EEJ] 8AA 8g 8cc#]	.
=375	=375
[8FF#L 8F# 8d [8dd	.
8FF#J_ 8AA 8a 8dd_	.
8FF#L_ 8F# 8d 8dd_	.
8FF#J] 8AA 8a 8dd]	.
!	!LO:DY:a
[8CC#L 8C# 8e [8ee	sf
8CC#J] 8AA 8a 8ee]	.
=376	=376
[8DDL 8D 8f# [8ff#	.
8DDJ_ 8AA 8a 8ff#_	.
8DDL_ 8D 8f# 8ff#_	.
8DDJ] 8AA 8a 8ff#]	.
[8BBBL 8BB 8g [8gg	sf
8BBBJ] 8DD 8dd 8gg]	.
=377	=377
2.FFF# 2.DD 2.FF# 2.a 2.dd 2.aa	sf
=378	=378
12aaL	.
12gg#X	.
12bbJ	.
12aaL	.
12ggn	.
12ff#J	.
20eeLL	.
20dd	.
20cc#J	.
20bL	.
20aJJ	.
=379	=379
2.BB 2.D 2.G#X 2.dd 2.gg#X 2.ddd	sf
=380	=380
12dddL	.
12ccc#	.
12eeeJ	.
12dddL	.
12ccc#	.
12bbJ	.
20aaLL	.
20gg#X	.
20ff#J	.
20eeL	.
20ddJJ	.
=381	=381
[12AAL [12D [12F# [12A 12ddd	f
12AA_ 12D_ 12F#_ 12A_ 12ccc#	.
12AAJ] 12D] 12F#] 12A] 12eee	.
12dddL	.
12ccc#	.
12bbJ	.
20aaLL	.
20ggn	.
20ff#J	.
20eeL	.
20ddJJ	.
=382	=382
[12AAL [12C# [12E [12G 12aa	f
12AA_ 12C#_ 12E_ 12G_ 12gg#X	.
12AAJ] 12C#] 12E] 12G] 12bb	.
12aaL	.
12ggn	.
12ff#J	.
20eeLL	.
20dd	.
20cc#J	.
20bL	.
20aJJ	.
=383	=383
[8F#L 8f# 8a [8aa	p
8F#J_ 8d 8dd 8aa_	.
8F#L_ 8f# 8a 8aa_	.
8F#J_ 8d 8dd 8aa_	.
8F#L_ 8f# 8a 8aa_	.
8F#J_ 8d 8dd 8aa_	.
=384	=384
8F#L_ 8f# 8a 8aa_	.
8F#J_ 8d 8dd 8aa_	.
8F#L_ 8f# 8a 8aa_	.
8F#J] 8d 8dd 8aa]	.
[8E#XL 8e#X 8g#X [8gg#X	.
8E#J] 8d 8dd 8gg#]	.
=385	=385
[8F#L 8f# 8a [8aa	.
8F#J_ 8d 8dd 8aa_	.
8F#L_ 8f# 8a 8aa_	.
8F#J] 8d 8dd 8aa]	.
[8GL 8g 8b [8bb	.
8GJ] 8d 8dd 8bb]	.
=386	=386
[8F#L 8f# 8a [8aa	.
8F#J_ 8d 8dd 8aa_	.
8F#L_ 8f# 8a 8aa_	.
8F#J] 8d 8dd 8aa]	.
[8EnL 8en 8gn [8ggn	.
8EJ] 8A 8cc# 8gg]	.
=387	=387
[8DL 8d 8f# [8ff#	.
8DJ_ 8A 8a 8ff#_	.
8DL_ 8d 8f# 8ff#_	.
8DJ_ 8A 8a 8ff#_	.
8DL_ 8d 8f# 8ff#_	.
8DJ_ 8A 8a 8ff#_	.
=388	=388
8DL_ 8d 8f# 8ff#_	.
8DJ_ 8A 8a 8ff#_	.
8DL_ 8d 8f# 8ff#_	.
8DJ] 8A 8a 8ff#]	.
[8C#L 8c# 8e#X [8ee#X	.
8C#J] 8A 8a 8ee#]	.
=389	=389
[8DL 8d 8f# [8ff#	.
8DJ_ 8A 8a 8ff#_	.
8DL_ 8d 8f# 8ff#_	.
8DJ] 8A 8a 8ff#]	.
[8EL 8e 8g [8gg	.
8EJ] 8A 8a 8gg]	.
=390	=390
[8DL 8d 8f# [8ff#	.
8DJ_ 8A 8a 8ff#_	.
8DL_ 8d 8f# 8ff#_	.
8DJ] 8A 8a 8ff#]	.
[8C#L 8c# 8en [8een	.
8C#J] 8F# 8a#X 8ee]	.
=391	=391
[8BBL 8B 8d [8dd	.
8BBJ_ 8F# 8f# 8dd_	.
8BBL_ 8B 8d 8dd_	.
!LO:TX:a:t=cresc.	!
8BBJ_ 8F# 8f# 8dd_	.
8BBL_ 8B 8d 8dd_	.
8BBJ_ 8F# 8f# 8dd_	.
=392	=392
8BBL_ 8B 8d 8dd_	.
8BBJ_ 8F# 8f# 8dd_	.
8BBL_ 8B 8d 8dd_	.
8BBJ] 8F# 8f# 8dd]	.
[8AA#XL 8A#X 8c# [8cc#	.
8AA#J] 8F# 8f# 8cc#]	.
=393	=393
[8BBL 8B 8d [8dd	.
8BBJ_ 8F# 8f# 8dd_	.
8BBL_ 8B 8d 8dd_	.
8BBJ] 8F# 8f# 8dd]	.
[8AA#XL 8A#X 8c# [8cc#	.
8AA#J] 8F# 8f# 8cc#]	.
=394	=394
[8BBL 8B 8d [8dd	.
8BBJ_ 8F# 8f# 8dd_	.
8BBL_ 8B 8d 8dd_	.
8BBJ] 8F# 8f# 8dd]	.
[8AAnL 8An 8d#X [8dd#X	.
8AAJ] 8F# 8b 8dd#]	.
=395	=395
[8GGL 8G 8e [8ee	.
8GGJ_ 8BB 8b 8ee_	.
8GGL_ 8G 8e 8ee_	.
8GGJ] 8BB 8b 8ee]	.
!	!LO:DY:a
[8DD#XL 8D#X 8f# [8ff#	sf
8DD#J] 8BB 8b 8ff#]	.
=396	=396
[8EEL 8E 8g [8gg	.
8EEJ_ 8BB 8b 8gg_	.
8EEL_ 8E 8g 8gg_	.
8EEJ] 8BB 8b 8gg]	.
[8DDnL 8Dn 8g#X [8gg#X	sf
8DDJ] 8BB 8ee 8gg#]	.
=397	=397
[8CC#L 8C# 8a [8aa	.
8CC#J_ 8EE 8ee 8aa_	.
8CC#L_ 8C# 8a 8aa_	.
8CC#J] 8EE 8ee 8aa]	.
[8GGG#XL 8GG#X 8b [8bb	sf
8GGG#J] 8EE 8ee 8bb]	.
=398	=398
[8AAAL 8AA 8ccn [8cccn	.
8AAAJ_ 8EE 8ee 8ccc_	.
8AAAL_ 8AA 8ccn 8ccc_	.
8AAAJ] 8EE 8ee 8ccc]	.
[8GGGnL 8GGn 8cc#X [8ccc#X	sf
8GGGJ] 8EE 8aa 8ccc#]	.
=399	=399
2.FFF# 2.DD 2.FF# 2.dd 2.aa 2.ddd	sf
=400	=400
12dddL	.
12ccc#	.
12eeeJ	.
12dddL	.
12ccc#	.
12bbJ	.
20aaLL	.
20gg	.
20ff#J	.
20eeL	.
20ddJJ	.
=401	=401
2.B 2.d 2.g#X 2.dd 2.gg#X 2.ddd	sf
=402	=402
12dddL	.
12ccc#	.
12eeeJ	.
12dddL	.
12ccc#	.
12bbJ	.
20aaLL	.
20gg#X	.
20ff#J	.
20eeL	.
20ddJJ	.
=403	=403
2.A 2.d 2.f# 2.a 2.dd 2.ff# 2.aa 2.ddd	sf
=404	=404
12dddL	.
12ccc#	.
12eeeJ	.
12dddL	.
12ccc#	.
12bbJ	.
20aaLL	.
20ggn	.
20ff#J	.
20eeL	.
20ddJJ	.
=405	=405
12dddL	f
12ccc#	.
12eeeJ	.
12dddL	.
12ccc#	.
12bbJ	.
20aaLL	.
20gg	.
20ff#J	.
20eeL	.
20ddJJ	.
=406	=406
12dddL	f
12ccc#	.
12eeeJ	.
12dddL	.
12ccc#	.
12bbJ	.
20aaLL	.
20gg	.
20ff#J	.
20eeL	.
20ddJJ	.
=407	=407
12AAL [12ff# [12aa	sf
12BB 12ff#_ 12aa_	.
12C#J 12ff#_ 12aa_	.
12DL 12ff#_ 12aa_	.
12E 12ff#_ 12aa_	.
12F#J 12ff#_ 12aa_	.
12GL 12ff#_ 12aa_	.
12A 12ff#_ 12aa_	.
12BJ 12ff#_ 12aa_	.
=408	=408
12c#L 12ff#_ 12aa_	.
12d 12ff#_ 12aa_	.
12eJ 12ff#_ 12aa_	.
8e#XL 8ff#_ 8aa_	.
8f#J 8ff#_ 8aa_	.
8gL 8ff#_ 8aa_	.
8g#XJ 8ff#_ 8aa_	.
=409	=409
[4a 4ff#] 4aa]	p
4a_ 4ee 4gg	.
4a_ 4dd 4ff#	.
=410	=410
[2A 2a] 2dd 2ff#	.
4A] 4g 4cc# 4ee	.
=411	=411
4d'` 4f# 4dd	.
4r	.
[4aa	.
=412	=412
4D'` 4F# 4A 4aa_	.
4D'` 4F# 4A 4aa]	.
[4a	.
=413	=413
4F#'` 4A 4d 4a_	.
4F#'` 4A 4d 4a]	.
[4dd	.
=414	=414
4A'` 4e 4dd]	.
4A'` 4e 4cc#	.
[4gg	.
=415	=415
4d'` 4f# 4gg]	.
4d'` 4f# 4ff#	.
[4ddd	.
=416	=416
4f#'` 4ccn 4ddd_	.
4f#'` 4ccn 4ddd]	.
[4dd	.
=417	=417
4g'` 4b 4dd_	.
4g'` 4b 4dd]	.
[4bb	.
=418	=418
4a'` 4cc# 4bb]	.
4a'` 4cc# 4aa	.
4gg'`	.
=419	=419
4d'` 4dd 4ff#	.
4dd	.
[4a [4aa	p
=420	=420
4DD'` 4AA 4a_ 4aa_	.
4DD'` 4AA 4a] 4aa]	.
[4A [4a	.
=421	=421
4FF#'` 4D 4A_ 4a_	.
4FF#'` 4D 4A] 4a]	.
[4d [4dd	.
=422	=422
4AA'` 4E 4d] 4dd]	.
4AA'` 4E 4c# 4cc#	.
[4g [4gg	.
=423	=423
4D'` 4F# 4g] 4gg]	.
4D'` 4F# 4f# 4ff#	.
[4dd [4ddd	.
=424	=424
4F#'` 4cn 4dd_ 4ddd_	.
4F#'` 4cn 4dd] 4ddd]	.
[4d [4dd	.
=425	=425
4G'` 4B 4d_ 4dd_	.
4G'` 4B 4d] 4dd]	.
[4b [4bb	.
=426	=426
4A'` 4c# 4b] 4bb]	.
4A'` 4c# 4a 4aa	.
4g'` 4gg	.
=427	=427
4D'` 4d 4f# 4ff#	.
4D'` 4d 4dd	.
[4dd [4ddd	.
=428	=428
4F#'` 4cn 4dd_ 4ddd_	.
4F#'` 4cn 4dd] 4ddd]	.
!LO:TX:b:t=cresc.	!
[4d [4dd	.
=429	=429
4G'` 4B 4d_ 4dd_	.
4G'` 4B 4d] 4dd]	.
[4b [4bb	.
=430	=430
4A'` 4c# 4b] 4bb]	.
4A'` 4c# 4a 4aa	.
4g'` 4gg	.
=431	=431
4D'` 4d 4f# 4ff#	.
4D'` 4d 4dd	.
[4b [4bb	sf
=432	=432
4A'` 4c# 4b] 4bb]	.
4A'` 4c# 4a 4aa	.
4g'` 4gg	.
=433	=433
4D'` 4d 4f# 4ff#	.
4D'` 4d 4dd	.
[4b	f
=434	=434
4AA'` 4C# 4E 4G 4b]	.
4a'`	.
4g'`	.
=435	=435
!LO:TX:b:t=dim.	!
4f#'	.
4e'	.
4d'	.
=436	=436
4c#'	.
4B'	.
4B-X'	.
=437	=437
4A'	.
4G#X'	.
4Gn'	.
=438	=438
4DD [4D 4F#	.
4DD 4D_	.
4DD 4D]	.
=439	=439
4DD [4FF# [4cn [4a	pp
4DD 4FF#_ 4c_ 4a_	.
4DD 4FF#] 4c] 4a]	.
=440	=440
4DD [4GG [4B 4a	.
4DD 4GG_ 4B_ [4g	.
4DD 4GG] 4B] 4g_	.
=441	=441
4DD [4BB [4G 4g_	.
4DD 4BB_ 4G_ 4g]	.
[8DDL 8BB_ 8G_ 8f#	.
8DDJ] 8BB] 8G] 8e	.
=442	=442
4DD [4E [4G [4d	.
4DD 4E_ 4G_ 4d]	.
4DD 4E] 4G] 4c#	.
=443	=443
4DD [4C# [4G [4B	.
4DD 4C#_ 4G_ 4B]	.
4DD 4C#] 4G] 4A	.
=444	=444
4DD [4D [4F# [4A	.
4DD 4D_ 4F#_ 4A_	.
4DD 4D] 4F#] 4A]	.
=445	=445
4DD [4FF# [4A [4d	.
4DD 4FF#_ 4A_ 4d_	.
4DD 4FF#] 4A] 4d]	.
=446	=446
4DD [4AA [4c# [4e	.
4DD 4AA_ 4c#] 4e]	.
!LO:TX:b:t=cresc.	!
[8DDL 8AA_ 8d 8f#	.
8DDJ] 8AA] 8e 8g	.
=447	=447
4DD'` 4D 4d 4f#	.
4DD	.
4DD'` 4a	.
=448	=448
4DD [4AA [4c# [4e	.
4DD 4AA_ 4c#] 4e]	.
[8DDL 8AA_ 8d 8f#	.
8DDJ] 8AA] 8e 8g	.
=449	=449
4DD'` 4D 4d 4f#	.
4DD	.
4DD'` 4dd	sf
=450	=450
4DD [4AA [4c# [4e	.
4DD 4AA_ 4c#] 4e]	.
[8DDL 8AA_ 8d 8f#	.
8DDJ] 8AA] 8e 8g	.
=451	=451
4DD'` 4D 4d 4f#	.
4DD	.
4DD'` 4aa	sf
=452	=452
4DD [4AA [4c# [4e	.
4DD 4AA_ 4c#] 4e]	.
[8DDL 8AA_ 8d 8f#	.
8DDJ] 8AA] 8e 8g	.
=453	=453
4DD'` 4D 4d 4f#	.
4DD	.
4DD'` 4aa	sf
=454	=454
4DD [4AA [4c# [4e	.
4DD 4AA_ 4c#] 4e]	.
[8DDL 8AA_ 8d 8f#	.
8DDJ] 8AA] 8e 8g	.
=455	=455
4DD'` [4D 4d 4f#	.
4DD 4D_	.
4DD'` 4D] 4ff# 4ddd	sf
=456	=456
4DD [4AA	.
4DD 4AA_	.
!LO:TX:b:t=dim.	!
4DD 4AA] 4ff# 4ddd	.
=457	=457
4DD [4FF#	.
4DD 4FF#_	.
4DD 4FF#] 4ff# 4ddd	.
=458	=458
4DD'` 4ff# 4ddd	p
2r	.
=459	=459
4A'` 4e 4g 4cc#	pp
2r	.
=460	=460
4D'` 4d 4f# 4dd	.
2r	.
=461	=461
2.r	.
==	==
*-	*-
